icons/op-cost-reports-24.svg

<svg width="24" height="24" viewBox="0 0 24 24" fill="none" xmlns="http://www.w3.org/2000/svg">
<path d="M2.75 1.75C3.16421 1.75 3.5 2.08579 3.5 2.5V20.25H21.25C21.6642 20.25 22 20.5858 22 21C22 21.4142 21.6642 21.75 21.25 21.75H3C2.95741 21.75 2.91565 21.7465 2.875 21.7396C2.83435 21.7465 2.79259 21.75 2.75 21.75C2.33579 21.75 2 21.4142 2 21L2 2.5C2 2.08579 2.33579 1.75 2.75 1.75Z" fill="#636C76"/>
<path d="M5.75 9.25C6.16421 9.25 6.5 9.58579 6.5 10V18C6.5 18.4142 6.16421 18.75 5.75 18.75C5.33579 18.75 5 18.4142 5 18V10C5 9.58579 5.33579 9.25 5.75 9.25Z" fill="#636C76"/>
<path d="M13.5 10C13.5 9.58579 13.1642 9.25 12.75 9.25C12.3358 9.25 12 9.58579 12 10V18C12 18.4142 12.3358 18.75 12.75 18.75C13.1642 18.75 13.5 18.4142 13.5 18V10Z" fill="#636C76"/>
<path d="M16.25 3.25C16.6642 3.25 17 3.58579 17 4V18C17 18.4142 16.6642 18.75 16.25 18.75C15.8358 18.75 15.5 18.4142 15.5 18L15.5 4C15.5 3.58579 15.8358 3.25 16.25 3.25Z" fill="#636C76"/>
<path d="M20.5 6C20.5 5.58579 20.1642 5.25 19.75 5.25C19.3358 5.25 19 5.58579 19 6V18C19 18.4142 19.3358 18.75 19.75 18.75C20.1642 18.75 20.5 18.4142 20.5 18V6Z" fill="#636C76"/>
<path d="M9.25 7.25C9.66421 7.25 10 7.58579 10 8L10 18C10 18.4142 9.66421 18.75 9.25 18.75C8.83579 18.75 8.5 18.4142 8.5 18L8.5 8C8.5 7.58579 8.83579 7.25 9.25 7.25Z" fill="#636C76"/>
</svg>

<svg xmlns="http://www.w3.org/2000/svg" width="24" height="24" viewBox="0 0 24 24"><path d="M2.75 1.75a.75.75 0 0 1 .75.75v17.75h17.75a.75.75 0 0 1 0 1.5H3a.736.736 0 0 1-.125-.01A.75.75 0 0 1 2 21V2.5a.75.75 0 0 1 .75-.75Z"/><path d="M5.75 9.25a.75.75 0 0 1 .75.75v8A.75.75 0 0 1 5 18v-8a.75.75 0 0 1 .75-.75Zm7.75.75a.75.75 0 0 0-1.5 0v8a.75.75 0 0 0 1.5 0v-8Zm2.75-6.75A.75.75 0 0 1 17 4v14a.75.75 0 0 1-1.5 0V4a.75.75 0 0 1 .75-.75ZM20.5 6A.75.75 0 0 0 19 6v12a.75.75 0 0 0 1.5 0V6ZM9.25 7.25A.75.75 0 0 1 10 8v10a.75.75 0 0 1-1.5 0V8a.75.75 0 0 1 .75-.75Z"/></svg>
